Numix-Light/16/status/indicator-keyboard-En-4.svg

<?xml version="1.0" encoding="UTF-8" standalone="no"?>
<svg
   xmlns:dc="http://purl.org/dc/elements/1.1/"
   xmlns:cc="http://creativecommons.org/ns#"
   xmlns:rdf="http://www.w3.org/1999/02/22-rdf-syntax-ns#"
   xmlns:svg="http://www.w3.org/2000/svg"
   xmlns="http://www.w3.org/2000/svg"
   xmlns:sodipodi="http://sodipodi.sourceforge.net/DTD/sodipodi-0.dtd"
   xmlns:inkscape="http://www.inkscape.org/namespaces/inkscape"
   viewBox="0 0 16 16"
   id="svg2"
   version="1.1"
   inkscape:version="0.91 r13725"
   sodipodi:docname="indicator-keyboard-En-4.svg">
  <metadata
     id="metadata14">
    <rdf:RDF>
      <cc:Work
         rdf:about="">
        <dc:format>image/svg+xml</dc:format>
        <dc:type
           rdf:resource="http://purl.org/dc/dcmitype/StillImage" />
      </cc:Work>
    </rdf:RDF>
  </metadata>
  <defs
     id="defs12" />
  <sodipodi:namedview
     pagecolor="#ffffff"
     bordercolor="#666666"
     borderopacity="1"
     objecttolerance="10"
     gridtolerance="10"
     guidetolerance="10"
     inkscape:pageopacity="0"
     inkscape:pageshadow="2"
     inkscape:window-width="640"
     inkscape:window-height="480"
     id="namedview10"
     showgrid="false"
     inkscape:zoom="14.75"
     inkscape:cx="8"
     inkscape:cy="8"
     inkscape:window-x="75"
     inkscape:window-y="34"
     inkscape:window-maximized="0"
     inkscape:current-layer="svg2" />
  <path
     style="fill:#353535;fill-opacity:1"
     d="M 1.5996094 0 C 0.71320937 2.9605947e-16 0 0.71320937 0 1.5996094 L 0 14.400391 C 2.9605947e-16 15.286791 0.71320937 16 1.5996094 16 L 14.400391 16 C 15.286791 16 16 15.286791 16 14.400391 L 16 1.5996094 C 16 0.71320937 15.286791 0 14.400391 0 L 1.5996094 0 z M 1.8476562 4.859375 L 5.4472656 4.859375 L 5.4472656 5.390625 L 2.4589844 5.390625 L 2.4589844 7.5585938 L 5.1230469 7.5585938 L 5.1230469 8.0800781 L 2.4589844 8.0800781 L 2.4589844 10.564453 L 5.6816406 10.564453 L 5.6816406 11.095703 L 1.8476562 11.095703 L 1.8476562 4.859375 z M 8.5859375 6.3535156 C 8.9399375 6.3535156 9.23475 6.4038594 9.46875 6.5058594 C 9.70875 6.6078594 9.8971559 6.7552656 10.035156 6.9472656 C 10.179156 7.1332656 10.281797 7.3570938 10.341797 7.6210938 C 10.401797 7.8850938 10.431641 8.1761406 10.431641 8.4941406 L 10.431641 11.095703 L 9.8457031 11.095703 L 9.8457031 8.6835938 C 9.8457031 8.3535937 9.8214375 8.0756563 9.7734375 7.8476562 C 9.7314375 7.6196562 9.6568281 7.4330625 9.5488281 7.2890625 C 9.4468281 7.1450625 9.3087656 7.0424219 9.1347656 6.9824219 C 8.9667656 6.9164219 8.7540937 6.8847656 8.4960938 6.8847656 C 8.2200937 6.8847656 7.9793906 6.8996875 7.7753906 6.9296875 C 7.5773906 6.9596875 7.4486719 6.9857656 7.3886719 7.0097656 L 7.3886719 11.095703 L 6.8046875 11.095703 L 6.8046875 6.6054688 C 6.9786875 6.5574688 7.2118594 6.5033594 7.5058594 6.4433594 C 7.7998594 6.3833594 8.1599375 6.3535156 8.5859375 6.3535156 z M 13.251953 8.8417969 L 13.648438 8.8417969 L 13.648438 11.486328 L 14.152344 11.486328 L 14.152344 11.796875 L 13.648438 11.796875 L 13.648438 12.896484 L 13.275391 12.896484 L 13.275391 11.796875 L 11.4375 11.796875 L 11.4375 11.5625 C 11.5077 11.3753 11.605669 11.163688 11.730469 10.929688 C 11.859169 10.695687 12.004162 10.456638 12.164062 10.210938 C 12.323963 9.9652374 12.496394 9.7261874 12.683594 9.4921875 C 12.870794 9.2542875 13.060853 9.0367969 13.251953 8.8417969 z M 13.275391 9.2695312 C 13.138891 9.4099313 12.999775 9.5706063 12.859375 9.7539062 C 12.718975 9.9372063 12.583778 10.129225 12.455078 10.328125 C 12.330278 10.523125 12.214669 10.719069 12.105469 10.917969 C 11.996269 11.116869 11.904178 11.306928 11.830078 11.486328 L 13.275391 11.486328 L 13.275391 9.2695312 z "
     id="path4" />
</svg>

<svg xmlns="http://www.w3.org/2000/svg" viewBox="0 0 16 16">
 <path d="m 1.6 0 c -0.886 0 -1.6 0.713 -1.6 1.6 l 0 12.801 c 0 0.886 0.713 1.6 1.6 1.6 l 12.801 0 c 0.886 0 1.6 -0.713 1.6 -1.6 l 0 -12.801 c 0 -0.886 -0.713 -1.6 -1.6 -1.6 l -12.801 0 z m 0.248 4.859 l 3.6 0 l 0 0.531 l -2.988 0 l 0 2.168 l 2.664 0 l 0 0.521 l -2.664 0 l 0 2.484 l 3.223 0 l 0 0.531 l -3.834 0 l 0 -6.236 z m 6.738 1.494 c 0.354 0 0.649 0.05 0.883 0.152 c 0.24 0.102 0.428 0.249 0.566 0.441 c 0.144 0.186 0.247 0.41 0.307 0.674 c 0.06 0.264 0.09 0.555 0.09 0.873 l 0 2.602 l -0.586 0 l 0 -2.412 c 0 -0.33 -0.024 -0.608 -0.072 -0.836 c -0.042 -0.228 -0.117 -0.415 -0.225 -0.559 c -0.102 -0.144 -0.24 -0.247 -0.414 -0.307 c -0.168 -0.066 -0.381 -0.098 -0.639 -0.098 c -0.276 0 -0.517 0.015 -0.721 0.045 c -0.198 0.03 -0.327 0.056 -0.387 0.08 l 0 4.086 l -0.584 0 l 0 -4.49 c 0.174 -0.048 0.407 -0.102 0.701 -0.162 c 0.294 -0.06 0.654 -0.09 1.08 -0.09 z m 4.666 2.488 l 0.396 0 l 0 2.645 l 0.504 0 l 0 0.311 l -0.504 0 l 0 1.1 l -0.373 0 l 0 -1.1 l -1.838 0 l 0 -0.234 c 0.07 -0.187 0.168 -0.399 0.293 -0.633 c 0.129 -0.234 0.274 -0.473 0.434 -0.719 c 0.16 -0.246 0.332 -0.485 0.52 -0.719 c 0.187 -0.238 0.377 -0.455 0.568 -0.65 z m 0.023 0.428 c -0.137 0.14 -0.276 0.301 -0.416 0.484 c -0.14 0.183 -0.276 0.375 -0.404 0.574 c -0.125 0.195 -0.24 0.391 -0.35 0.59 c -0.109 0.199 -0.201 0.389 -0.275 0.568 l 1.445 0 l 0 -2.217 z" style="fill:#353535;fill-opacity:1"/>
</svg>
